X:46
T:[untitled]
T:I have heard the Broom of the Cowdenknows sung to this No.45. In Smith's collection May Colvin
Z:Jack Campin - http://www.campin.me.uk
S:Blaikie MS (NLS MS.1578) p16, Blaikie #45
N:[Murdoch Henderson's writing:] Anon
M:C
L:1/8
V:1 midi program 1 74
V:2 midi program 1 46 bass middle = d transpose -24
Q:1/4=80
K:B Minor
[V:1] DE|F3E  F2A2|B2AF E2DE|F2F2 d2cB|c4   z2
[V:2] z2|d2A2 d2f2|g2d2 A2a2|d2d2 d2z2|A2a2 A2
%
[V:1] c2|d3c  B2B2|ABAF E2B2|ABAF E2FA|B4   z2|]
[V:2] g2|f2a2 g2g2|f2d2 a2g2|f2d2 a2d2|d4   z2|]
W:Transcription (c) Jack Campin 2009, no mirroring or republication without permission

